icon/pk/cake-four.svg

<svg viewBox="0 0 48 48" fill="none" xmlns="http://www.w3.org/2000/svg" height="1em" width="1em">
  <path d="M6 25L11.1711 40.6283C11.4421 41.4471 12.2074 42 13.0699 42H34.9301C35.7926 42 36.5579 41.4471 36.8289 40.6283L42 25" stroke="black" stroke-width="4"/>
  <path d="M11.4071 25.1228H6.31652C6.14171 25.1228 5.99963 24.9803 6.00362 24.8055C6.16392 17.7822 11.6341 11.8858 19 10H29C36.0773 12.036 41.8233 17.9578 41.996 24.8057C42.0004 24.9804 41.8583 25.1228 41.6835 25.1228H36.5929C34.2767 25.1228 32.0393 25.9636 30.2964 27.4891C26.6917 30.6441 21.3083 30.6441 17.7036 27.4891C15.9607 25.9636 13.7233 25.1228 11.4071 25.1228Z" fill="#2F88FF" stroke="black" stroke-width="4" stroke-linecap="round" stroke-linejoin="round"/>
  <path d="M19.1 10C19.0344 9.67689 19 9.34247 19 9C19 6.23858 21.2386 4 24 4C26.7614 4 29 6.23858 29 9C29 9.34247 28.9656 9.67689 28.9 10" stroke="black" stroke-width="4" stroke-linecap="round" stroke-linejoin="round"/>
</svg>

<svg width="48" height="48" fill="none" xmlns="http://www.w3.org/2000/svg"><path d="m6 25 5.171 15.628A2 2 0 0 0 13.07 42h21.86a2 2 0 0 0 1.899-1.372L42 25" stroke="#000" stroke-width="4"/><path d="M11.407 25.123h-5.09a.312.312 0 0 1-.313-.318C6.164 17.782 11.634 11.885 19 10h10c7.077 2.036 12.823 7.958 12.996 14.806a.31.31 0 0 1-.313.317h-5.09a9.56 9.56 0 0 0-6.297 2.366 9.56 9.56 0 0 1-12.592 0 9.56 9.56 0 0 0-6.297-2.366Z" fill="#2F88FF" stroke="#000" stroke-width="4" stroke-linecap="round" stroke-linejoin="round"/><path d="M19.1 10a5 5 0 1 1 9.8 0" stroke="#000" stroke-width="4" stroke-linecap="round" stroke-linejoin="round"/></svg>
